X: 2845
T: Barclays
R: hornpipe
M: 4/4
K: Gminor
DE|:"Bb"FdBF "F7"EcAF|"Bb"BcdB "F7"F2BA|"Eb"GEGB edcB|"F7"A2f2 f2DE|
"Bb"FdBF "F7"EcAF|"Bb"BcdB "F7"FABA|"Eb" GFED "F7" CdcA|1 "Bb" B2B,2 B,2,DE:|2 "Bb" B2B,2 B,2de||
"Bb"fdBg "F7"ecAf|"Gm"dBGe "F7"cAFE|"Bb" DFBF "C7"=EGcB|"F7"A2f2 f2de|
"Bb"fdBg "F7"ecAf|"Gm"dBGe "F7"cAFE|"Bb" DFBF "F7"FcAF|1 "Bb"B2B,2 B,2de:|2 "Bb" B2B,2 B,2,z2||

